images/entrpn-entra.svg

<svg fill="none" height="42" viewBox="0 0 116 42" width="116" xmlns="http://www.w3.org/2000/svg"><g fill="#0052d9"><path d="m0 41.8906-.00000037-30.6666c-.00000006-4.41832 3.58172037-8.00004 8.00000037-8.00004h22.6667c4.4182 0 8 3.58172 8 8.00004v22.6666c0 4.4183-3.5818 8-8 8z"/><path d="m37.667 11.2236h1v22.667h-1zm-7-6.99997h-22.667c-3.86588 0-6.99982 3.13416-7 6.99997v29.667h29.667c3.8658-.0002 7-3.1341 7-7h1l-.0108.4121c-.2075 4.0905-3.4875 7.3699-7.5781 7.5772l-.4111.0107h-30.667l-.00000037-30.667.01074217-.4111c.2141652-4.22705 3.7089882-7.58887 7.9892582-7.58887h22.667l.4111.01074c4.0908.20726 7.3709 3.48735 7.5781 7.57813l.0108.4111h-1c-.0002-3.8657-3.1343-6.99979-7-6.99997z"/><path d="m77.3359 11.2236c.0002-4.41799 3.582-7.99979 8-7.99997h22.6671c4.418 0 8 3.58187 8 7.99997v22.667c0 4.4183-3.582 8-8 8h-22.6671c-4.4181-.0002-8-3.5818-8-8zm11.6016 11.3379c.0001 4.2698 3.4625 7.7314 7.7334 7.7315 4.2711 0 7.7331-3.4616 7.7331-7.7315s-3.462-7.7314-7.7331-7.7314c-4.2709.0001-7.7334 3.4616-7.7334 7.7314z"/><path d="m115.003 11.333h1v22.667h-1zm-7-6.99999h-22.6671c-3.7448.00017-6.8035 2.94135-6.9912 6.63969l-.0088.3603v22.667c0 3.745 2.9412 6.8035 6.6397 6.9912l.3603.0088h22.6671c3.866 0 7-3.134 7-7h1c0 4.4183-3.582 8-8 8h-22.6671c-4.4181-.0002-8-3.5818-8-8v-22.667c.0002-4.41801 3.582-7.99982 8-7.99999h22.6671c4.418 0 8 3.58187 8 7.99999h-1c0-3.74504-2.941-6.80365-6.64-6.9912zm-11.3321 10.60649c-4.2709 0-7.7334 3.4615-7.7334 7.7314.0001 4.2698 3.4625 7.7314 7.7334 7.7314l.3984-.0097c4.0857-.2073 7.3347-3.5854 7.3347-7.7217 0-4.2699-3.462-7.7314-7.7331-7.7314zm0-1c4.8231 0 8.7331 3.909 8.7331 8.7314 0 4.6717-3.67 8.486-8.2839 8.7197l-.4492.0117c-4.8229 0-8.7333-3.9091-8.7334-8.7314 0-4.8224 3.9104-8.7314 8.7334-8.7314z"/><path clip-rule="evenodd" d="m49.4087 0c.5697 0 1.1161.220666 1.519.613448.4028.392782.6292.925522.6292 1.480992v2.09445h-4.2963v-2.09445c0-.55547.2263-1.08821.6291-1.480992.4029-.392782.9493-.613448 1.519-.613448zm19.3333 4.18889h2.1482c1.7092 0 3.3483.662 4.5569 1.84034 1.2086 1.17835 1.8875 2.77656 1.8875 4.44297v25.1334c0 1.6664-.6789 3.2646-1.8875 4.4429-1.2086 1.1784-2.8477 1.8404-4.5569 1.8404h-25.7778c-1.7092 0-3.3483-.662-4.5569-1.8404-1.2086-1.1783-1.8875-2.7765-1.8875-4.4429v-25.1334c0-1.66641.6789-3.26462 1.8875-4.44297 1.2086-1.17834 2.8477-1.84034 4.5569-1.84034h2.1482v6.28331c0 .5555.2263 1.0882.6291 1.481.4029.3928.9493.6135 1.519.6135s1.1161-.2207 1.519-.6135c.4028-.3928.6292-.9255.6292-1.481v-6.28331h4.2963v6.28331c0 .5555.2263 1.0882.6291 1.481.4029.3928.9493.6135 1.519.6135s1.1161-.2207 1.519-.6135c.4028-.3928.6292-.9255.6292-1.481v-6.28331h4.2962v6.28331c0 .5555.2264 1.0882.6292 1.481.4029.3928.9493.6135 1.519.6135s1.1161-.2207 1.519-.6135c.4028-.3928.6291-.9255.6291-1.481zm0 0h-4.2963v-2.09445c0-.55547.2264-1.08821.6292-1.480992.4029-.392782.9493-.613448 1.519-.613448s1.1161.220666 1.519.613448c.4028.392782.6291.925522.6291 1.480992zm-8.5925 0v-2.09445c0-.55547-.2264-1.08821-.6292-1.480992-.4029-.392782-.9493-.613448-1.519-.613448s-1.1161.220666-1.519.613448c-.4028.392782-.6291.925522-.6291 1.480992v2.09445z" fill-rule="evenodd"/><path d="m47.2607 10.4717c0 .5554.2261 1.0886.6289 1.4814.4029.3928.9499.6133 1.5196.6133.5695-.0001 1.1158-.2206 1.5185-.6133.4029-.3928.6289-.9259.6289-1.4814v-6.28322h4.2969v6.28322c0 .5555.2261 1.0886.6289 1.4814.4028.3927.949.6132 1.5186.6133.5697 0 1.1167-.2205 1.5195-.6133.4028-.3927.6289-.926.6289-1.4814v-6.28322h4.2959v6.28322c0 .5555.227 1.0886.6299 1.4814.4028.3927.949.6133 1.5186.6133.5697 0 1.1166-.2205 1.5195-.6133.4027-.3927.6289-.926.6289-1.4814v-6.28322h2.1484c1.709.00011 3.3482.66257 4.5567 1.84082 1.2083 1.17823 1.8876 2.77618 1.8877 4.4424v25.1338c-.0001 1.6664-.6792 3.265-1.8877 4.4433-1.2085 1.1782-2.8477 1.8398-4.5567 1.8399h-25.7783c-1.709-.0001-3.3481-.6617-4.5566-1.8399-1.2086-1.1783-1.8877-2.7769-1.8877-4.4433v-25.1338c.0001-1.6663.6792-3.26415 1.8877-4.4424 1.2085-1.17832 2.8475-1.8408 4.5566-1.84082h2.1484zm23.9815 0c0 1.2392-.5054 2.415-1.3838 3.2715-.8763.8543-2.052 1.3232-3.2646 1.3232-1.2125 0-2.3875-.4691-3.2637-1.3232-.4465-.4353-.7968-.9531-1.0332-1.5196-.2364.5663-.585 1.0844-1.0313 1.5196-.8762.8543-2.052 1.3232-3.2646 1.3232-1.2125-.0001-2.3875-.4691-3.2637-1.3232-.4464-.4353-.7968-.953-1.0332-1.5196-.2364.5663-.585 1.0844-1.0312 1.5196-.8762.8542-2.0513 1.3231-3.2637 1.3232-1.2126 0-2.3884-.4689-3.2647-1.3232-.8784-.8565-1.3838-2.0323-1.3838-3.2715v-3.7676c-.9348.08022-1.8061.4778-2.4599 1.11524-.7328.71454-1.1327 1.66985-1.1328 2.65236v25.1338c0 .9826.3998 1.9386 1.1328 2.6533.7351.7166 1.7454 1.1298 2.8115 1.1299h25.7783l.1992-.0049c.9921-.0482 1.9232-.4532 2.6123-1.125.6873-.6701 1.0814-1.5523 1.128-2.4697l.0049-.1836v-25.1338c-.0001-.98244-.4001-1.93783-1.1329-2.65236-.6537-.63737-1.5252-1.03496-2.4599-1.11524zm-21.833-10.4717c.5695.00012116 1.1158.220607 1.5185.613281.4029.392779.6289.925979.6289 1.481449v2.09375h-4.2959v-2.09375c0-.55546.2261-1.08867.6289-1.481449.4029-.392782.9499-.613281 1.5196-.613281zm8.5918 0c.5697 0 1.1167.220499 1.5195.613281.4028.392769.6289.926019.6289 1.481449v2.09375h-4.2959v-2.09375c0-.55548.2261-1.08867.6289-1.481449.4028-.392675.949-.6131968 1.5186-.613281zm8.5928 0c.5697 0 1.1166.220499 1.5195.613281.4027.392759.6289.926059.6289 1.481449v2.09375h-4.2969v-2.09375c0-.55548.227-1.08867.6299-1.481449.4028-.39266.9489-.61324315 1.5186-.613281z"/></g><path d="m3.02273 34v-23.2727h15.68177v4.0568h-10.76132v5.5454h9.95452v4.0569h-9.95452v5.5568h10.80682v4.0568zm22.90827-17.4545 3.2046 6.1022 3.2841-6.1022h4.9659l-5.0568 8.7272 5.1931 8.7273h-4.9431l-3.4432-6.0341-3.3864 6.0341h-5l5.1818-8.7273-5-8.7272zm22.9737 0v3.6363h-10.5114v-3.6363zm-8.125-4.1819h4.8409v16.2728c0 .4469.0682.7954.2045 1.0454.1364.2424.3258.4129.5682.5114.25.0985.5379.1477.8636.1477.2273 0 .4546-.0189.6819-.0568.2272-.0455.4015-.0796.5227-.1023l.7613 3.6023c-.2424.0757-.5833.1629-1.0227.2614-.4394.106-.9735.1704-1.6023.1931-1.1666.0455-2.1894-.1098-3.0681-.4659-.8713-.356-1.5493-.9091-2.0341-1.6591-.4849-.75-.7235-1.6969-.7159-2.8409zm10.6384 21.6364v-17.4545h4.6932v3.0454h.1818c.3182-1.0833.8522-1.9015 1.6022-2.4545.75-.5606 1.6137-.8409 2.591-.8409.2424 0 .5037.0151.784.0454s.5266.072.7387.125v4.2955c-.2273-.0682-.5417-.1288-.9432-.1819-.4015-.053-.7689-.0795-1.1023-.0795-.7121 0-1.3485.1553-1.9091.4659-.553.303-.9924.7273-1.3181 1.2727-.3182.5455-.4773 1.1743-.4773 1.8864v9.875zm16.931.3295c-1.1136 0-2.1061-.1931-2.9773-.5795-.8712-.3939-1.5606-.9735-2.0682-1.7386-.5-.7728-.75-1.7349-.75-2.8864 0-.9697.1781-1.7841.5341-2.4432.3561-.6591.8409-1.1894 1.4546-1.5909.6136-.4015 1.3106-.7045 2.0909-.9091.7879-.2045 1.6136-.3485 2.4773-.4318 1.0151-.1061 1.8333-.2045 2.4545-.2955.6212-.0984 1.072-.2424 1.3523-.4318s.4204-.4697.4204-.8409v-.0682c0-.7197-.2272-1.2765-.6818-1.6704-.447-.394-1.0833-.5909-1.9091-.5909-.8712 0-1.5644.1932-2.0795.5795-.5152.3788-.8561.8561-1.0228 1.4318l-4.4772-.3636c.2272-1.0606.6742-1.9773 1.3409-2.75.6666-.7803 1.5265-1.3788 2.5795-1.7955 1.0606-.4242 2.2879-.6363 3.6818-.6363.9697 0 1.8978.1136 2.7841.3409.894.2273 1.6856.5795 2.375 1.0568.697.4773 1.2462 1.0909 1.6478 1.8409.4015.7424.6022 1.6326.6022 2.6705v11.7727h-4.5909v-2.4205h-.1363c-.2803.5455-.6553 1.0266-1.125 1.4432-.4697.4091-1.0341.7311-1.6932.9659-.6591.2273-1.4205.3409-2.2841.3409zm1.3864-3.3409c.7121 0 1.3409-.1401 1.8863-.4204.5455-.2879.9735-.6743 1.2841-1.1591.3106-.4849.4659-1.0341.4659-1.6477v-1.8523c-.1515.0985-.3598.1894-.625.2727-.2576.0758-.5492.1477-.875.2159-.3257.0606-.6515.1175-.9773.1705-.3257.0454-.6212.0871-.8863.125-.5682.0833-1.0644.2159-1.4887.3977-.4242.1818-.7537.428-.9886.7386-.2348.3031-.3523.6819-.3523 1.1364 0 .6591.2387 1.1629.7159 1.5114.4849.3409 1.0985.5113 1.841.5113z" fill="#fff"/></svg>

<svg width="116" height="42" viewBox="0 0 116 42" fill="none" xmlns="http://www.w3.org/2000/svg">
<path d="M0 41.8906L-3.73427e-07 11.224C-4.27228e-07 6.80568 3.58172 3.22396 8 3.22396L30.6667 3.22396C35.0849 3.22396 38.6667 6.80568 38.6667 11.224L38.6667 33.8906C38.6667 38.3089 35.0849 41.8906 30.6667 41.8906L0 41.8906Z" fill="#0052D9"/>
<path d="M37.667 11.2236L38.667 11.2236L38.667 33.8906L37.667 33.8906L37.667 11.2236ZM30.667 4.22363L8 4.22363C4.13412 4.22363 1.00018 7.35779 1 11.2236L1 40.8906L30.667 40.8906C34.5328 40.8904 37.667 37.7565 37.667 33.8906L38.667 33.8906L38.6562 34.3027C38.4487 38.3932 35.1687 41.6726 31.0781 41.8799L30.667 41.8906L0 41.8906L-3.73431e-07 11.2236L0.0107418 10.8125C0.224907 6.58545 3.71973 3.22363 8 3.22363L30.667 3.22363L31.0781 3.23437C35.1689 3.44163 38.449 6.72172 38.6562 10.8125L38.667 11.2236L37.667 11.2236C37.6668 7.3579 34.5327 4.22381 30.667 4.22363Z" fill="#0052D9"/>
<path d="M77.3359 11.2236C77.3361 6.80561 80.9179 3.22381 85.3359 3.22363L108.003 3.22363C112.421 3.22363 116.003 6.8055 116.003 11.2236L116.003 33.8906C116.003 38.3089 112.421 41.8906 108.003 41.8906L85.3359 41.8906C80.9178 41.8904 77.3359 38.3088 77.3359 33.8906L77.3359 11.2236ZM88.9375 22.5615C88.9376 26.8313 92.4 30.2929 96.6709 30.293C100.942 30.293 104.404 26.8314 104.404 22.5615C104.404 18.2916 100.942 14.8301 96.6709 14.8301C92.4 14.8302 88.9375 18.2917 88.9375 22.5615Z" fill="#0052D9"/>
<path d="M115.003 11.333L116.003 11.333L116.003 34L115.003 34L115.003 11.333ZM108.003 4.33301L85.3359 4.33301C81.5911 4.33318 78.5324 7.27436 78.3447 10.9727L78.3359 11.333L78.3359 34C78.3359 37.745 81.2771 40.8035 84.9756 40.9912L85.3359 41L108.003 41C111.869 41 115.003 37.866 115.003 34L116.003 34C116.003 38.4183 112.421 42 108.003 42L85.3359 42C80.9178 41.9998 77.3359 38.4182 77.3359 34L77.3359 11.333C77.3361 6.91499 80.9179 3.33318 85.3359 3.33301L108.003 3.33301C112.421 3.33301 116.003 6.91488 116.003 11.333L115.003 11.333C115.003 7.58796 112.062 4.52935 108.363 4.3418L108.003 4.33301ZM96.6709 14.9395C92.4 14.9395 88.9375 18.401 88.9375 22.6709C88.9376 26.9407 92.4 30.4023 96.6709 30.4023L97.0693 30.3926C101.155 30.1853 104.404 26.8072 104.404 22.6709C104.404 18.401 100.942 14.9395 96.6709 14.9395ZM96.6709 13.9395C101.494 13.9395 105.404 17.8485 105.404 22.6709C105.404 27.3426 101.734 31.1569 97.1201 31.3906L96.6709 31.4023C91.848 31.4023 87.9376 27.4932 87.9375 22.6709C87.9375 17.8485 91.8479 13.9395 96.6709 13.9395Z" fill="#0052D9"/>
<path fill-rule="evenodd" clip-rule="evenodd" d="M49.4087 0C49.9784 0 50.5248 0.220666 50.9277 0.613448C51.3305 1.00623 51.5569 1.53897 51.5569 2.09444V4.18889H47.2606V2.09444C47.2606 1.53897 47.4869 1.00623 47.8897 0.613448C48.2926 0.220666 48.839 0 49.4087 0ZM68.742 4.18889H70.8902C72.5994 4.18889 74.2385 4.85089 75.4471 6.02923C76.6557 7.20758 77.3346 8.80579 77.3346 10.4722V35.6056C77.3346 37.272 76.6557 38.8702 75.4471 40.0485C74.2385 41.2269 72.5994 41.8889 70.8902 41.8889H45.1124C43.4032 41.8889 41.7641 41.2269 40.5555 40.0485C39.3469 38.8702 38.668 37.272 38.668 35.6056V10.4722C38.668 8.80579 39.3469 7.20758 40.5555 6.02923C41.7641 4.85089 43.4032 4.18889 45.1124 4.18889H47.2606V10.4722C47.2606 11.0277 47.4869 11.5604 47.8897 11.9532C48.2926 12.346 48.839 12.5667 49.4087 12.5667C49.9784 12.5667 50.5248 12.346 50.9277 11.9532C51.3305 11.5604 51.5569 11.0277 51.5569 10.4722V4.18889H55.8532V10.4722C55.8532 11.0277 56.0795 11.5604 56.4823 11.9532C56.8852 12.346 57.4316 12.5667 58.0013 12.5667C58.571 12.5667 59.1174 12.346 59.5203 11.9532C59.9231 11.5604 60.1495 11.0277 60.1495 10.4722V4.18889H64.4457V10.4722C64.4457 11.0277 64.6721 11.5604 65.0749 11.9532C65.4778 12.346 66.0242 12.5667 66.5939 12.5667C67.1636 12.5667 67.71 12.346 68.1129 11.9532C68.5157 11.5604 68.742 11.0277 68.742 10.4722V4.18889ZM68.742 4.18889H64.4457V2.09444C64.4457 1.53897 64.6721 1.00623 65.0749 0.613448C65.4778 0.220666 66.0242 0 66.5939 0C67.1636 0 67.71 0.220666 68.1129 0.613448C68.5157 1.00623 68.742 1.53897 68.742 2.09444V4.18889ZM60.1495 4.18889V2.09444C60.1495 1.53897 59.9231 1.00623 59.5203 0.613448C59.1174 0.220666 58.571 0 58.0013 0C57.4316 0 56.8852 0.220666 56.4823 0.613448C56.0795 1.00623 55.8532 1.53897 55.8532 2.09444V4.18889H60.1495Z" fill="#0052D9"/>
<path d="M47.2607 10.4717C47.2607 11.0271 47.4868 11.5603 47.8896 11.9531C48.2925 12.3459 48.8395 12.5664 49.4092 12.5664C49.9787 12.5663 50.525 12.3458 50.9277 11.9531C51.3306 11.5603 51.5566 11.0272 51.5566 10.4717V4.18848H55.8535V10.4717C55.8535 11.0272 56.0796 11.5603 56.4824 11.9531C56.8852 12.3458 57.4314 12.5663 58.001 12.5664C58.5707 12.5664 59.1177 12.3459 59.5205 11.9531C59.9233 11.5604 60.1494 11.0271 60.1494 10.4717V4.18848H64.4453V10.4717C64.4453 11.0272 64.6723 11.5603 65.0752 11.9531C65.478 12.3458 66.0242 12.5664 66.5938 12.5664C67.1635 12.5664 67.7104 12.3459 68.1133 11.9531C68.516 11.5604 68.7422 11.0271 68.7422 10.4717V4.18848H70.8906C72.5996 4.18859 74.2388 4.85105 75.4473 6.0293C76.6556 7.20753 77.3349 8.80548 77.335 10.4717V35.6055C77.3349 37.2719 76.6558 38.8705 75.4473 40.0488C74.2388 41.227 72.5996 41.8886 70.8906 41.8887H45.1123C43.4033 41.8886 41.7642 41.227 40.5557 40.0488C39.3471 38.8705 38.668 37.2719 38.668 35.6055V10.4717C38.6681 8.8054 39.3472 7.20755 40.5557 6.0293C41.7642 4.85098 43.4032 4.1885 45.1123 4.18848H47.2607V10.4717ZM71.2422 10.4717C71.2422 11.7109 70.7368 12.8867 69.8584 13.7432C68.9821 14.5975 67.8064 15.0664 66.5938 15.0664C65.3813 15.0664 64.2063 14.5973 63.3301 13.7432C62.8836 13.3079 62.5333 12.7901 62.2969 12.2236C62.0605 12.7899 61.7119 13.308 61.2656 13.7432C60.3894 14.5975 59.2136 15.0664 58.001 15.0664C56.7885 15.0663 55.6135 14.5973 54.7373 13.7432C54.2909 13.3079 53.9405 12.7902 53.7041 12.2236C53.4677 12.7899 53.1191 13.308 52.6729 13.7432C51.7967 14.5974 50.6216 15.0663 49.4092 15.0664C48.1966 15.0664 47.0208 14.5975 46.1445 13.7432C45.2661 12.8867 44.7607 11.7109 44.7607 10.4717V6.7041C43.8259 6.78432 42.9546 7.1819 42.3008 7.81934C41.568 8.53388 41.1681 9.48919 41.168 10.4717V35.6055C41.168 36.5881 41.5678 37.5441 42.3008 38.2588C43.0359 38.9754 44.0462 39.3886 45.1123 39.3887H70.8906L71.0898 39.3838C72.0819 39.3356 73.013 38.9306 73.7021 38.2588C74.3894 37.5887 74.7835 36.7065 74.8301 35.7891L74.835 35.6055V10.4717C74.8349 9.48926 74.4349 8.53387 73.7021 7.81934C73.0484 7.18197 72.1769 6.78438 71.2422 6.7041V10.4717ZM49.4092 0C49.9787 0.000121161 50.525 0.220607 50.9277 0.613281C51.3306 1.00606 51.5566 1.53926 51.5566 2.09473V4.18848H47.2607V2.09473C47.2607 1.53927 47.4868 1.00606 47.8896 0.613281C48.2925 0.220499 48.8395 0 49.4092 0ZM58.001 0C58.5707 0 59.1177 0.220499 59.5205 0.613281C59.9233 1.00605 60.1494 1.5393 60.1494 2.09473V4.18848H55.8535V2.09473C55.8535 1.53925 56.0796 1.00606 56.4824 0.613281C56.8852 0.220606 57.4314 8.4203e-05 58.001 0ZM66.5938 0C67.1635 0 67.7104 0.220499 68.1133 0.613281C68.516 1.00604 68.7422 1.53934 68.7422 2.09473V4.18848H64.4453V2.09473C64.4453 1.53925 64.6723 1.00606 65.0752 0.613281C65.478 0.220621 66.0241 3.78535e-05 66.5938 0Z" fill="#0052D9"/>
<path d="M3.02273 34V10.7273H18.7045V14.7841H7.94318V20.3295H17.8977V24.3864H7.94318V29.9432H18.75V34H3.02273ZM25.931 16.5455L29.1356 22.6477L32.4197 16.5455H37.3856L32.3288 25.2727L37.5219 34H32.5788L29.1356 27.9659L25.7492 34H20.7492L25.931 25.2727L20.931 16.5455H25.931ZM48.9047 16.5455V20.1818H38.3933V16.5455H48.9047ZM40.7797 12.3636H45.6206V28.6364C45.6206 29.0833 45.6888 29.4318 45.8251 29.6818C45.9615 29.9242 46.1509 30.0947 46.3933 30.1932C46.6433 30.2917 46.9312 30.3409 47.2569 30.3409C47.4842 30.3409 47.7115 30.322 47.9388 30.2841C48.166 30.2386 48.3403 30.2045 48.4615 30.1818L49.2228 33.7841C48.9804 33.8598 48.6395 33.947 48.2001 34.0455C47.7607 34.1515 47.2266 34.2159 46.5978 34.2386C45.4312 34.2841 44.4084 34.1288 43.5297 33.7727C42.6584 33.4167 41.9804 32.8636 41.4956 32.1136C41.0107 31.3636 40.7721 30.4167 40.7797 29.2727V12.3636ZM51.4181 34V16.5455H56.1113V19.5909H56.2931C56.6113 18.5076 57.1453 17.6894 57.8953 17.1364C58.6453 16.5758 59.509 16.2955 60.4863 16.2955C60.7287 16.2955 60.99 16.3106 61.2703 16.3409C61.5506 16.3712 61.7969 16.4129 62.009 16.4659V20.7614C61.7817 20.6932 61.4673 20.6326 61.0658 20.5795C60.6643 20.5265 60.2969 20.5 59.9635 20.5C59.2514 20.5 58.615 20.6553 58.0544 20.9659C57.5014 21.2689 57.062 21.6932 56.7363 22.2386C56.4181 22.7841 56.259 23.4129 56.259 24.125V34H51.4181ZM68.3491 34.3295C67.2355 34.3295 66.243 34.1364 65.3718 33.75C64.5006 33.3561 63.8112 32.7765 63.3036 32.0114C62.8036 31.2386 62.5536 30.2765 62.5536 29.125C62.5536 28.1553 62.7317 27.3409 63.0877 26.6818C63.4438 26.0227 63.9286 25.4924 64.5423 25.0909C65.1559 24.6894 65.8529 24.3864 66.6332 24.1818C67.4211 23.9773 68.2468 23.8333 69.1105 23.75C70.1256 23.6439 70.9438 23.5455 71.565 23.4545C72.1862 23.3561 72.637 23.2121 72.9173 23.0227C73.1976 22.8333 73.3377 22.553 73.3377 22.1818V22.1136C73.3377 21.3939 73.1105 20.8371 72.6559 20.4432C72.2089 20.0492 71.5726 19.8523 70.7468 19.8523C69.8756 19.8523 69.1824 20.0455 68.6673 20.4318C68.1521 20.8106 67.8112 21.2879 67.6445 21.8636L63.1673 21.5C63.3945 20.4394 63.8415 19.5227 64.5082 18.75C65.1748 17.9697 66.0347 17.3712 67.0877 16.9545C68.1483 16.5303 69.3756 16.3182 70.7695 16.3182C71.7392 16.3182 72.6673 16.4318 73.5536 16.6591C74.4476 16.8864 75.2392 17.2386 75.9286 17.7159C76.6256 18.1932 77.1748 18.8068 77.5764 19.5568C77.9779 20.2992 78.1786 21.1894 78.1786 22.2273V34H73.5877V31.5795H73.4514C73.1711 32.125 72.7961 32.6061 72.3264 33.0227C71.8567 33.4318 71.2923 33.7538 70.6332 33.9886C69.9741 34.2159 69.2127 34.3295 68.3491 34.3295ZM69.7355 30.9886C70.4476 30.9886 71.0764 30.8485 71.6218 30.5682C72.1673 30.2803 72.5953 29.8939 72.9059 29.4091C73.2165 28.9242 73.3718 28.375 73.3718 27.7614V25.9091C73.2203 26.0076 73.012 26.0985 72.7468 26.1818C72.4892 26.2576 72.1976 26.3295 71.8718 26.3977C71.5461 26.4583 71.2203 26.5152 70.8945 26.5682C70.5688 26.6136 70.2733 26.6553 70.0082 26.6932C69.44 26.7765 68.9438 26.9091 68.5195 27.0909C68.0953 27.2727 67.7658 27.5189 67.5309 27.8295C67.2961 28.1326 67.1786 28.5114 67.1786 28.9659C67.1786 29.625 67.4173 30.1288 67.8945 30.4773C68.3794 30.8182 68.993 30.9886 69.7355 30.9886Z" fill="white"/>
</svg>
